X:1
T:The Perfect Woman
M:3/4
L:1/4
K:C
 z2 G,| C- C/2 G,/2 G,/2 G,/2| ^C2 G,| D3/2 G,/2 G,/2 G,/2| ^D2 G,|\
 E3/2 G,/2 G,/2 G,/2| F2 F| ^F3/2 F/2F/2 F/2| G2 G/2F/2| E2 E| E A G|\
 F2 F| ^F2 F| G2 E/2C/2| A3/2 F/2E/2 D/2| C3/2 ^D/2=D/2 C/2| B,2 G,|\
 G,2 G,| G,2 G,| G,2 G,| G,2 G,| G,2 G,| G,2 G,| ^G,2 G,| G,2 z|

